!!!COM:	Bach, Johann Sebastian
!!!CDT:	1685/02/21/-1750/07/28/
!!!OTL@@DE:	Gott sei gelobet und gebenedeiet
!!!SCT:	BWV 322
!!!PC#:	70
!!!AGN:	chorale
**kern	**kern	**kern	**kern
*ICvox	*ICvox	*ICvox	*ICvox
*Ibass	*Itenor	*Ialto	*Isoprn
*I"Bass	*I"Tenor	*I"Alto	*I"Soprano
*>[A,A,B]	*>[A,A,B]	*>[A,A,B]	*>[A,A,B]
*>norep[A,B]	*>norep[A,B]	*>norep[A,B]	*>norep[A,B]
*>A	*>A	*>A	*>A
*clefF4	*clefGv2	*clefG2	*clefG2
*k[]	*k[]	*k[]	*k[]
*G:mix	*G:mix	*G:mix	*G:mix
*M4/4	*M4/4	*M4/4	*M4/4
*met(c)	*met(c)	*met(c)	*met(c)
*MM100	*MM100	*MM100	*MM100
8GGL	8BL	4d	4g
8AAJ	8cJ	.	.
=1	=1	=1	=1
4BB	4d	8gL	4g
.	.	8fJ	.
8EL	8cL	[4e	4g
8DJ	8BJ	.	.
4C	4c	4e]	2a
4F	8BL	4d	.
.	8AJ	.	.
=2	=2	=2	=2
2E;	2B;	2e;	2g;
8EL	4e	4g	4cc
8D	.	.	.
8C	4f	[4g	4dd
8BBJ	.	.	.
=3	=3	=3	=3
4C	4e	8gL]	4cc
.	.	8f#J	.
4GG	4d	4g	4b
4D	[4d	8gL	2a
.	.	16f#XL	.
.	.	16eJJ	.
4DD	8dL]	4f#	.
.	8cJ	.	.
=4	=4	=4	=4
2GG;	2B;	2d;	2g;
4D	4d	[4fnX	8aL
.	.	.	8bJ
4AA	4c	8fL]	4cc
.	.	8eJ	.
=5	=5	=5	=5
4BB	4d	4d	8gL
.	.	.	8fJ
8CL	4G	[4c	4e
8BBJ	.	.	.
4AA	4F	8cL]	4f
.	.	8BJ	.
4GG	4G	[4c	4e
=6	=6	=6	=6
4FF	4A	8cL]	2d
.	.	16BL	.
.	.	16AJJ	.
4GG	8GL	4B	.
.	8FJ	.	.
4CC;	4E;	4G;	4c;
=:|!	=:|!	=:|!	=:|!
*>B	*>B	*>B	*>B
4C	4c	4e	4g
=7	=7	=7	=7
8BBL	8GL	8dL	4g
8AAJ	8AJ	8cJ	.
4GG	4B	8dL	4g
.	.	8fJ	.
8CL	8cL	8eL	4.a
8DJ	8F#J	16dL	.
.	.	16cJJ	.
4E	8GL	8BL	.
.	8AJ	8c#J	8g
=8	=8	=8	=8
4D	4B	8d	8f#L
.	.	4g	8gJ
4DD	8AL	.	4a
.	16BL	8f#X	.
.	16cJJ	.	.
2GG;	2B;	2d;	2g;
=9||	=9||	=9||	=9||
8GL	[4B	4d	4g
8F#J	.	.	.
4E	8BL]	4e	4g
.	8c#J	.	.
8DL	4d	4f#	4a
8CJ	.	.	.
4BB	4d	[4g	4b
=10	=10	=10	=10
4AA	4c	8gL]	4cc
.	.	8f#J	.
8BBL	4d	4g	4b
8GGJ	.	.	.
8CL	8eL	8gL	2a
8AAJ	8cJ	16f#L	.
.	.	16eJJ	.
4D	8AL	4f#	.
.	16dL	.	.
.	16cJJ	.	.
=11	=11	=11	=11
2GG;	2B;	2d;	2g;
8GL	4d	4g	4b
8FnXJ	.	.	.
4E	4e	4g	4cc
=12	=12	=12	=12
4.BB	8dL	4g	4dd
.	8cJ	.	.
.	4B	[4g	4dd
8E	.	.	.
4AA	4c	8gL]	4dd
.	.	16f#L	.
.	.	16eJJ	.
4D	8dL	8f#L	4a
.	8cJ	8fJ	.
=13	=13	=13	=13
4GG	4B-	8eL	4g
.	.	8dJ	.
4AA	8.AL	8dL	4e
.	.	8c#J	.
.	16GJk	.	.
2D;	2F;	2A;	2d;
=14	=14	=14	=14
8CL	4G	4cnX	4e
8BBJ	.	.	.
4AA	4A	4c	4f#
4BB	4G	4d	8gL
.	.	.	8fJ
8CL	4G	[4c	4e
8BBJ	.	.	.
=15	=15	=15	=15
4AA	8AL	8cL]	2f#
.	8cJ	8eJ	.
4D	8BL	8dL	.
.	8AJ	8cJ	.
2GG;	2G;	2B;	2g;
=16	=16	=16	=16
4GG	4G	4B	8dL
.	.	.	8eJ
8AAL	8CL	4A	4fnX
8BBJ	8DJ	.	.
8CL	8EL	8GL	4e
8EJ	8GJ	8cJ	.
8GL	4G	4B	4d
8FJ	.	.	.
=17	=17	=17	=17
8EL	4G	4.c	4e
8CJ	.	.	.
8GL	8.GL	.	4d
8GGJ	.	8B	.
.	16FJk	.	.
2C;	2E;	2G;	2c;
=18	=18	=18	=18
4r	4ry	4ry	4r
4BB	8GL	4d	4g
.	8FJ	.	.
4C	4E	4c	4g
4BB	8DL	4G	4g
.	8EJ	.	.
=19	=19	=19	=19
8AAL	4F	8cL	4.a
8BBJ	.	8dJ	.
4C	8cL	4e	.
.	8BJ	.	8g
2D	8A	2d	8f#L
.	4G	.	8gJ
.	.	.	4a
.	8F#	.	.
=20	=20	=20	=20
2.GG;	2.B;	2.d;	2.g;
==	==	==	==
*-	*-	*-	*-
!!!hum2abc: -Q ''
!!!title: @{PC#}. @{OTL@@DE}
!!!YOR1: 371 vierstimmige Choralges&auml;nge von Johann Sebastian Bach, 
!!!YOR2: 4th ed. by Alfred D&ouml;rffel (Leipzig: Breitkopf und H&auml;rtel, 
!!!YOR2: c.1875). 178 pp. Plate "V.A.10".  reprint: J.S. Bach, 371 Four-Part 
!!!YOR4: Chorales (New York: Associated Music Publishers, Inc., c.1940).
!!!SMS: B&H, 4th ed, Alfred D&ouml;rffel, c.1875, plate V.A.10
!!!EED:  Craig Stuart Sapp
!!!EEV:  2009/05/22
